svg/fluentui-system-icons/ic_fluent_document_print_20_regular.svg

<svg width="20" height="20" viewBox="0 0 20 20" fill="none" xmlns="http://www.w3.org/2000/svg">
<path d="M6 2C4.89543 2 4 2.89543 4 4V9.05001C4.16156 9.01722 4.32877 9 4.5 9H5V4C5 3.44772 5.44772 3 6 3H10V6.5C10 7.32843 10.6716 8 11.5 8H15V16C15 16.5523 14.5523 17 14 17H10.7324C10.3866 17.5978 9.74028 18 9 18H14C15.1046 18 16 17.1046 16 16V7.41421C16 7.01639 15.842 6.63486 15.5607 6.35355L11.6464 2.43934C11.3651 2.15804 10.9836 2 10.5858 2H6ZM14.7929 7H11.5C11.2239 7 11 6.77614 11 6.5V3.20711L14.7929 7ZM4.5 10C3.67157 10 3 10.6716 3 11.5V12H2.5C1.67157 12 1 12.6716 1 13.5V16C1 16.5523 1.44772 17 2 17H3V17.5C3 18.3284 3.67157 19 4.5 19H6.5C7.32843 19 8 18.3284 8 17.5V17H9C9.55229 17 10 16.5523 10 16V13.5C10 12.6716 9.32843 12 8.5 12H8V11.5C8 10.6716 7.32843 10 6.5 10H4.5ZM7 12H4V11.5C4 11.2239 4.22386 11 4.5 11H6.5C6.77614 11 7 11.2239 7 11.5V12ZM4.5 16H6.5C6.77614 16 7 16.2239 7 16.5V17.5C7 17.7761 6.77614 18 6.5 18H4.5C4.22386 18 4 17.7761 4 17.5V16.5C4 16.2239 4.22386 16 4.5 16Z" fill="#212121"/>
</svg>

<svg xmlns="http://www.w3.org/2000/svg" width="20" height="20"><path d="M6 2a2 2 0 0 0-2 2v5.05c.162-.033.329-.05.5-.05H5V4a1 1 0 0 1 1-1h4v3.5A1.5 1.5 0 0 0 11.5 8H15v8a1 1 0 0 1-1 1h-3.268A2 2 0 0 1 9 18h5a2 2 0 0 0 2-2V7.414a1.5 1.5 0 0 0-.44-1.06l-3.914-3.915A1.5 1.5 0 0 0 10.586 2H6Zm8.793 5H11.5a.5.5 0 0 1-.5-.5V3.207L14.793 7ZM4.5 10A1.5 1.5 0 0 0 3 11.5v.5h-.5A1.5 1.5 0 0 0 1 13.5V16a1 1 0 0 0 1 1h1v.5A1.5 1.5 0 0 0 4.5 19h2A1.5 1.5 0 0 0 8 17.5V17h1a1 1 0 0 0 1-1v-2.5A1.5 1.5 0 0 0 8.5 12H8v-.5A1.5 1.5 0 0 0 6.5 10h-2ZM7 12H4v-.5a.5.5 0 0 1 .5-.5h2a.5.5 0 0 1 .5.5v.5Zm-2.5 4h2a.5.5 0 0 1 .5.5v1a.5.5 0 0 1-.5.5h-2a.5.5 0 0 1-.5-.5v-1a.5.5 0 0 1 .5-.5Z"/></svg>
